dist/svgs/file-pdf-full.svg

<!-- Generated by IcoMoon.io -->
<svg version="1.1" xmlns="http://www.w3.org/2000/svg" width="24" height="24" viewBox="0 0 24 24">
<title>file-pdf-full</title>
<path d="M1 1v22c0 0.552 0.448 1 1 1h20c0.552 0 1-0.448 1-1v-22c0-0.552-0.448-1-1-1h-20c-0.552 0-1 0.448-1 1zM5 5h6v6h-6v-6zM19 19h-14v-2h14v2zM19 15h-14v-2h14v2zM19 11h-6v-2h6v2zM19 7h-6v-2h6v2z"></path>
</svg>

<svg xmlns="http://www.w3.org/2000/svg" width="24" height="24" viewBox="0 0 24 24"><title>file-pdf-full</title><path d="M1 1v22a1 1 0 0 0 1 1h20a1 1 0 0 0 1-1V1a1 1 0 0 0-1-1H2a1 1 0 0 0-1 1zm4 4h6v6H5V5zm14 14H5v-2h14v2zm0-4H5v-2h14v2zm0-4h-6V9h6v2zm0-4h-6V5h6v2z"/></svg>
